SVGs/Circle.svg

<svg height="511" viewBox="0 0 511 511" width="511" xmlns="http://www.w3.org/2000/svg"><path d="m255.77 508.88c-140.15.18-253.59-112.96-253.77-253.11s112.96-253.59 253.11-253.77 253.59 112.96 253.77 253.11-112.96 253.59-253.11 253.77zm148.23-253.58c-.11-82.12-66.58-148.41-148.7-148.3s-148.41 66.58-148.3 148.7 66.58 148.41 148.7 148.3 148.41-66.58 148.3-148.7z" fill="#fff" fill-rule="evenodd" stroke="#bfbfbf" stroke-width="4"/></svg>

<svg xmlns="http://www.w3.org/2000/svg" viewBox="0 0 511 511" width="511" height="511">
	<style>
		tspan { white-space:pre }
		.shp0 { fill: #ffffff;stroke: #bfbfbf;stroke-width: 4 } 
	</style>
	<path id="Shape 1" fill-rule="evenodd" class="shp0" d="M255.77 508.88C115.62 509.06 2.18 395.92 2 255.77C1.82 115.62 114.96 2.18 255.11 2C395.26 1.82 508.7 114.96 508.88 255.11C509.06 395.26 395.92 508.7 255.77 508.88ZM404 255.3C403.89 173.18 337.42 106.89 255.3 107C173.18 107.11 106.89 173.58 107 255.7C107.11 337.82 173.58 404.11 255.7 404C337.82 403.89 404.11 337.42 404 255.3Z" />
</svg>
